X:237
T:Reel 237
M:4/4
K:Dmaj
L:1/8
A|d2dc defg|afbf afed|cAAB cded|eaab aged|c2de dfed|cAdB cAAG|FAFA defd|eage fdd2|||fddc defg|afgf afgf|edcd efgf|edcd efge|dedc dfaf|efga bgag|fgaf begf|edcd edd|A|FAdA FABA|FAdA Feeg|fdcA defg|afge fddg|fddc defd|cdef gbag|fage fdec|dABG FDD|
